static/images/team/jonathan/tribal.svg

<svg xmlns="http://www.w3.org/2000/svg" width="165" height="145" fill="none" viewBox="0 0 165 145"><g clip-path="url(#clip0)"><path fill="#FCDCD9" d="M156.28 69.43C154.4 69.27 152.95 69.15 151.7 69.04C151.7 77.65 151.7 86.03 151.7 94.58C153.25 94.41 154.24 94.31 155.22 94.19C161.91 93.4 163.33 94.5999 163.47 101.24C163.74 114.39 164.09 127.54 164.16 140.69C164.17 142.24 163.48 144.38 161.7 144.36C160.12 144.33 159.81 142.6 159.62 141.13C158.94 135.88 158.6 130.6 158.12 125.16C156.67 125.16 155.43 125.16 153.76 125.16C153.76 130.34 153.98 135.33 153.63 140.27C153.52 141.88 152.83 143.98 151.03 143.93C149.31 143.88 148.95 141.91 148.79 140.31C148.4 136.18 148.76 131.98 148.29 127.86C148.12 126.42 146.39 125.16 145.38 123.82C144.87 124.09 144.36 124.36 143.86 124.62C143.86 130.07 144.03 135.54 143.74 140.97C143.67 142.35 142.85 144.04 141.26 144C139.67 143.96 139.04 142.29 138.97 140.88C138.69 135.62 138.86 130.34 138.86 125.21C134.58 124.65 131.41 124.48 128.4 123.72C127.11 123.39 124.81 121.32 125.01 119.83C125.21 118.37 127.61 119.12 128.99 118.97C131.75 118.68 134.56 118.88 137.63 118.88C137.63 112.35 138.24 106.01 137.44 99.8499C136.79 94.8899 138.85 94 142.75 93.9599C143.74 93.9499 144.73 93.9599 145.97 93.9599C145.97 86.3799 146.03 78.97 145.88 71.57C145.86 70.77 144.66 69.9999 144.01 69.2099C143.33 70.13 142.13 71.0099 142.07 71.9599C141.78 76.4399 142.02 80.96 141.61 85.43C141.48 86.9 140.78 88.6899 139.14 88.6399C137.54 88.59 137.04 86.85 136.96 85.4C136.69 80.26 136.86 75.1 136.86 69.33C122.6 69.33 108.55 69.33 94.5201 69.33C94.5201 78.49 94.2501 87.25 94.6401 95.98C94.8201 100.14 93.3401 101.39 89.5601 101.22C86.4801 101.08 83.3901 101.19 78.8501 101.19C84.4601 106.1 89.0001 109.93 93.3401 113.98C94.3101 114.89 95.9901 116.71 95.1401 117.89C94.2101 119.18 91.5001 118.18 90.4601 117.35C84.1001 112.25 77.9301 106.91 71.8101 101.51C70.9901 100.79 70.1801 99.0499 70.5101 98.2799C70.9201 97.3499 72.5101 96.5 73.6501 96.41C78.7601 95.98 83.9001 95.8299 88.8101 95.5899C88.8101 86.6699 89.0201 77.9 88.7201 69.15C88.5801 65.15 89.8401 64 93.7701 64C113.57 64 133.37 63.6799 153.17 63.6199C160.59 63.5999 161.88 65.0799 161.96 72.3799C162 76.2099 162.3 80.06 161.98 83.86C161.86 85.3 161.03 87.0299 159.39 86.9899C157.82 86.9599 157.21 85.36 157.07 83.94C156.55 79.35 156.51 74.69 156.28 69.43ZM153.14 100.17C153.14 105.59 153 110.53 153.24 115.45C153.3 116.7 154.58 117.89 155.3 119.11C156.33 117.79 158.15 116.51 158.23 115.13C158.49 110.52 158.14 105.87 157.97 101.24C157.95 100.8 157.61 100.37 157.37 99.82C156.04 99.93 154.76 100.03 153.14 100.17ZM142.73 100.35C142.99 105.75 143.08 111.22 143.65 116.64C143.75 117.59 145.85 118.33 147.62 119.58C147.62 113.06 147.64 108.08 147.61 103.09C147.59 99.9099 146.03 99.0399 142.73 100.35Z"/><path fill="#FCDCD9" d="M102.39 51.28C102.39 37.29 102.4 23.87 102.38 10.44C102.38 8.28001 101.85 6.04001 102.28 3.99001C102.59 2.53001 103.44 1.36606e-05 105.08 0.0100137C106.7 0.0300137 107.73 2.64001 107.77 3.98001C108.02 12.97 107.91 21.96 107.91 30.96C107.91 37.42 107.91 43.88 107.91 50.57C110.31 50.57 111.74 50.57 113.41 50.57C113.41 37.14 113.42 23.87 113.4 10.6C113.4 8.28001 112.89 5.90001 113.25 3.65001C113.46 2.37001 114.37 0.0600137 115.86 0.120014C117.22 0.170014 117.95 2.36001 118.02 3.54001C118.55 12.49 118.92 21.46 119.15 30.43C119.32 37.05 119.18 43.69 119.18 50.54C121.69 50.54 123.45 50.54 125.02 50.54C125.02 42.8 125.04 35.22 125.01 27.64C124.99 19.98 124.78 12.31 124.99 4.66001C125.03 3.09001 125.68 0.110014 127.45 1.36609e-05C129.23 -0.0999863 130.4 2.88001 130.43 4.35001C130.62 13.83 130.29 23.31 130.34 32.8C130.37 38.27 130.84 43.75 131.05 49.22C131.29 55.43 130.87 55.68 124.92 55.9C110.63 56.41 96.3401 57.12 82.0501 57.68C79.0801 57.8 76.0901 57.8 73.1301 57.54C72.0801 57.45 70.2801 56.99 70.1001 55.84C69.9101 54.65 71.6201 53.32 72.5001 53.24C79.4201 52.59 86.3701 52.22 93.3101 51.78C96.3901 51.58 99.5001 51.44 102.39 51.28Z"/><path fill="#FCDCD9" d="M30.69 83.9C27.65 88.11 25.6 91.35 23.11 94.2C22.09 95.37 20.15 97.04 18.56 96.43C17.13 95.87 17.01 93.63 16.88 92.17C16.61 89.27 16.8 86.34 16.8 82.16C12.92 86.44 9.95998 89.94 6.71998 93.15C5.60998 94.25 3.09998 95.61 2.44998 95.14C1.14998 94.22 0.0399797 92.11 0.0199797 90.48C-0.0600203 85.34 0.28998 80.18 0.74998 75.06C0.84998 73.91 1.54998 71.79 2.85998 71.78C4.33998 71.76 5.22998 74.17 5.29998 75.42C5.48998 78.99 5.09998 82.58 4.87998 87.5C8.87998 83.01 11.9 79.36 15.24 76.03C16.58 74.69 18.51 72.43 20.37 73.11C22.37 73.84 22.12 77.03 22.59 79.08C22.95 80.64 22.66 82.36 22.66 85.64C25.65 81.28 27.66 77.98 30.09 75.01C31.07 73.81 32.84 71.96 34.42 72.53C35.86 73.05 35.9 75.36 36.01 76.82C36.25 80.07 36.09 83.34 36.09 87.51C39.83 83.28 42.93 79.47 46.39 76.01C47.58 74.82 49.72 73.85 51.27 74.03C52.13 74.13 53.08 76.8 53.25 78.4C53.5 80.67 53.08 83.02 52.86 86.73C55.94 82.35 58.09 78.9 60.68 75.81C61.58 74.73 63.72 73.06 65.04 73.96C66.38 74.87 65.63 77.59 64.9 78.75C61.44 84.22 57.74 89.55 53.83 94.7C52.93 95.88 50.86 97.47 49.28 96.84C47.86 96.27 47.73 94.04 47.59 92.59C47.32 89.69 47.51 86.74 47.51 82.59C43.63 86.9 40.59 90.54 37.23 93.85C36.14 94.92 34.11 95.74 32.69 95.52C31.85 95.39 31.02 93.05 30.8 91.61C30.45 89.53 30.69 87.37 30.69 83.9Z"/><path fill="#FCDCD9" d="M47.5099 49.48C50.2399 47.1 52.6699 44.54 55.5499 42.64C56.9399 41.72 59.7599 40.39 60.9899 41.78C62.1499 43.1 60.5699 45.6 59.5399 46.78C57.3799 49.24 54.6499 51.2 52.0599 53.45C55.0599 56.61 57.9999 59.46 60.6099 62.58C61.3599 63.48 62.3799 65.49 61.4499 66.45C60.4299 67.51 58.1899 66.47 57.1399 65.7C54.0799 63.46 51.3199 60.82 48.2499 58.17C45.2799 60.47 42.6799 62.83 39.7399 64.6C38.5599 65.31 35.9399 66.02 35.0099 64.72C34.1399 63.52 35.5799 61.55 36.4999 60.57C38.6199 58.29 41.1499 56.39 43.8599 54.03C41.3699 51.67 38.8699 49.7 36.9299 47.29C35.8099 45.9 33.7099 43.4 34.9799 41.99C36.3299 40.48 39.2499 42.39 40.8399 43.43C43.2599 45 45.2199 47.34 47.5099 49.48Z"/><path fill="#FCDCD9" d="M84.8099 40.66C87.3899 40.66 90.3999 40.44 93.3599 40.77C94.5299 40.9 96.5799 41.66 96.6599 43C96.7299 44.23 94.8599 45.34 93.8999 45.38C86.7699 45.69 79.6399 45.78 72.4999 45.73C71.6999 45.72 70.1299 44.79 70.1099 43.73C70.0999 42.66 71.6099 41.75 72.4699 41.64C76.4299 41.14 80.4099 40.97 84.8099 40.66Z"/><path fill="#FCDCD9" d="M70.1199 88.83C70.3399 86.43 74.6599 87.14 76.9999 86.63C78.8999 86.22 80.9799 85.99 82.8599 86.33C83.9599 86.53 85.8299 87.61 85.7999 88.94C85.7699 90.15 84.0699 90.91 83.0199 91.2C81.3099 91.67 69.8799 91.47 70.1199 88.83Z"/><path fill="#FCDCD9" d="M70.1299 78.8901C70.1699 76.0201 75.4399 76.6901 78.1999 75.9301C79.7499 75.5001 81.5899 75.4401 83.1199 75.8501C84.4599 76.2201 86.7399 76.8701 86.7599 78.3501C86.7799 79.7201 84.6899 80.4101 83.4599 80.7501C81.7499 81.2301 70.0999 81.6101 70.1299 78.8901Z"/><path fill="#FCDCD9" d="M77.51 72.84C74.78 71.37 69.86 71.51 70.11 68.87C70.35 66.32 74.95 66.93 77.44 66.66C80.37 66.34 84.42 64.16 85.42 68.99C85.56 69.65 80.65 71.35 77.51 72.84Z"/><path fill="#FCDCD9" d="M5.01994 69C2.64994 69.19 1.92994 66.12 1.99994 65.17C2.07994 64.11 3.17994 62.22 4.52994 62.16C5.85994 62.1 7.07994 63.83 7.30994 64.89C7.50994 65.81 7.28994 68.82 5.01994 69Z"/><path fill="#FCDCD9" d="M15.28 68.5601C13.08 68.7801 11.92 65.7301 12.1 65.0301C12.42 63.7801 13.51 61.7601 15 61.7701C16.32 61.7801 17.4 63.6201 17.54 64.6801C17.66 65.6701 17.29 68.3601 15.28 68.5601Z"/><path fill="#FCDCD9" d="M25.2101 60.42C27.4501 60.51 27.8301 63.44 27.7101 64.41C27.5901 65.42 25.9401 67.05 25.1001 66.96C24.0201 66.85 22.4001 65.39 22.2801 64.37C22.1801 63.42 22.8401 60.32 25.2101 60.42Z"/><path fill="#FCDCD9" d="M14.5401 51.5099C16.4801 51.4299 17.4901 54.2999 17.3301 54.5599C16.5801 55.7699 15.4401 56.8999 14.1801 57.5399C13.8601 57.6999 11.8601 55.9099 11.9101 55.0999C11.9801 54.0399 12.5701 51.5999 14.5401 51.5099Z"/><path fill="#FCDCD9" d="M3.57002 49.3C1.35002 49.13 1.26002 46.25 1.23002 45.09C1.22002 44.42 3.18002 43.05 4.02002 43.2C4.95002 43.38 6.17002 44.91 6.23002 45.91C6.29002 46.77 5.62002 49.46 3.57002 49.3Z"/></g><defs><clipPath id="clip0"><rect width="164.15" height="144.35" fill="#fff"/></clipPath></defs></svg>

<svg xmlns="http://www.w3.org/2000/svg" width="165" height="145" fill="none"><g clip-path="url(#clip0)" fill="#FCDCD9"><path d="M156.28 69.43c-1.88-.16-3.33-.28-4.58-.39v25.54c1.55-.17 2.54-.27 3.52-.39 6.69-.79 8.11.41 8.25 7.05.27 13.15.62 26.3.69 39.45.01 1.55-.68 3.69-2.46 3.67-1.58-.03-1.89-1.76-2.08-3.23-.68-5.25-1.02-10.53-1.5-15.97h-4.36c0 5.18.22 10.17-.13 15.11-.11 1.61-.8 3.71-2.6 3.66-1.72-.05-2.08-2.02-2.24-3.62-.39-4.13-.03-8.33-.5-12.45-.17-1.44-1.9-2.7-2.91-4.04-.51.27-1.02.54-1.52.8 0 5.45.17 10.92-.12 16.35-.07 1.38-.89 3.07-2.48 3.03-1.59-.04-2.22-1.71-2.29-3.12-.28-5.26-.11-10.54-.11-15.67-4.28-.56-7.45-.73-10.46-1.49-1.29-.33-3.59-2.4-3.39-3.89.2-1.46 2.6-.71 3.98-.86 2.76-.29 5.57-.09 8.64-.09 0-6.53.61-12.87-.19-19.03-.65-4.96 1.41-5.85 5.31-5.89.99-.01 1.98 0 3.22 0 0-7.58.06-14.99-.09-22.39-.02-.8-1.22-1.57-1.87-2.36-.68.92-1.88 1.8-1.94 2.75-.29 4.48-.05 9-.46 13.47-.13 1.47-.83 3.26-2.47 3.21-1.6-.05-2.1-1.79-2.18-3.24-.27-5.14-.1-10.3-.1-16.07H94.52c0 9.16-.27 17.92.12 26.65.18 4.16-1.3 5.41-5.08 5.24-3.08-.14-6.17-.03-10.71-.03 5.61 4.91 10.15 8.74 14.49 12.79.97.91 2.65 2.73 1.8 3.91-.93 1.29-3.64.29-4.68-.54-6.36-5.1-12.53-10.44-18.65-15.84-.82-.72-1.63-2.46-1.3-3.23.41-.93 2-1.78 3.14-1.87 5.11-.43 10.25-.58 15.16-.82 0-8.92.21-17.69-.09-26.44-.14-4 1.12-5.15 5.05-5.15 19.8 0 39.6-.32 59.4-.38 7.42-.02 8.71 1.46 8.79 8.76.04 3.83.34 7.68.02 11.48-.12 1.44-.95 3.17-2.59 3.13-1.57-.03-2.18-1.63-2.32-3.05-.52-4.59-.56-9.25-.79-14.51zm-3.14 30.74c0 5.42-.14 10.36.1 15.28.06 1.25 1.34 2.44 2.06 3.66 1.03-1.32 2.85-2.6 2.93-3.98.26-4.61-.09-9.26-.26-13.89-.02-.44-.36-.87-.6-1.42-1.33.11-2.61.21-4.23.35zm-10.41.18c.26 5.4.35 10.87.92 16.29.1.95 2.2 1.69 3.97 2.94 0-6.52.02-11.5-.01-16.49-.02-3.18-1.58-4.05-4.88-2.74zm-40.34-49.07c0-13.99.01-27.41-.01-40.84 0-2.16-.53-4.4-.1-6.45.31-1.46 1.16-3.99 2.8-3.98 1.62.02 2.65 2.63 2.69 3.97.25 8.99.14 17.98.14 26.98v19.61h5.5c0-13.43.01-26.7-.01-39.97 0-2.32-.51-4.7-.15-6.95.21-1.28 1.12-3.59 2.61-3.53 1.36.05 2.09 2.24 2.16 3.42.53 8.95.9 17.92 1.13 26.89.17 6.62.03 13.26.03 20.11h5.84c0-7.74.02-15.32-.01-22.9-.02-7.66-.23-15.33-.02-22.98.04-1.57.69-4.55 2.46-4.66 1.78-.1 2.95 2.88 2.98 4.35.19 9.48-.14 18.96-.09 28.45.03 5.47.5 10.95.71 16.42.24 6.21-.18 6.46-6.13 6.68-14.29.51-28.58 1.22-42.87 1.78-2.97.12-5.96.12-8.92-.14-1.05-.09-2.85-.55-3.03-1.7-.19-1.19 1.52-2.52 2.4-2.6 6.92-.65 13.87-1.02 20.81-1.46 3.08-.2 6.19-.34 9.08-.5zM30.69 83.9c-3.04 4.21-5.09 7.45-7.58 10.3-1.02 1.17-2.96 2.84-4.55 2.23-1.43-.56-1.55-2.8-1.68-4.26-.27-2.9-.08-5.83-.08-10.01-3.88 4.28-6.84 7.78-10.08 10.99-1.11 1.1-3.62 2.46-4.27 1.99-1.3-.92-2.41-3.03-2.43-4.66-.08-5.14.27-10.3.73-15.42.1-1.15.8-3.27 2.11-3.28 1.48-.02 2.37 2.39 2.44 3.64.19 3.57-.2 7.16-.42 12.08 4-4.49 7.02-8.14 10.36-11.47 1.34-1.34 3.27-3.6 5.13-2.92 2 .73 1.75 3.92 2.22 5.97.36 1.56.07 3.28.07 6.56 2.99-4.36 5-7.66 7.43-10.63.98-1.2 2.75-3.05 4.33-2.48 1.44.52 1.48 2.83 1.59 4.29.24 3.25.08 6.52.08 10.69 3.74-4.23 6.84-8.04 10.3-11.5 1.19-1.19 3.33-2.16 4.88-1.98.86.1 1.81 2.77 1.98 4.37.25 2.27-.17 4.62-.39 8.33 3.08-4.38 5.23-7.83 7.82-10.92.9-1.08 3.04-2.75 4.36-1.85 1.34.91.59 3.63-.14 4.79A227.67 227.67 0 0 1 53.83 94.7c-.9 1.18-2.97 2.77-4.55 2.14-1.42-.57-1.55-2.8-1.69-4.25-.27-2.9-.08-5.85-.08-10-3.88 4.31-6.92 7.95-10.28 11.26-1.09 1.07-3.12 1.89-4.54 1.67-.84-.13-1.67-2.47-1.89-3.91-.35-2.08-.11-4.24-.11-7.71zm16.82-34.42c2.73-2.38 5.16-4.94 8.04-6.84 1.39-.92 4.21-2.25 5.44-.86 1.16 1.32-.42 3.82-1.45 5-2.16 2.46-4.89 4.42-7.48 6.67 3 3.16 5.94 6.01 8.55 9.13.75.9 1.77 2.91.84 3.87-1.02 1.06-3.26.02-4.31-.75-3.06-2.24-5.82-4.88-8.89-7.53-2.97 2.3-5.57 4.66-8.51 6.43-1.18.71-3.8 1.42-4.73.12-.87-1.2.57-3.17 1.49-4.15 2.12-2.28 4.65-4.18 7.36-6.54-2.49-2.36-4.99-4.33-6.93-6.74-1.12-1.39-3.22-3.89-1.95-5.3 1.35-1.51 4.27.4 5.86 1.44 2.42 1.57 4.38 3.91 6.67 6.05z"/><path d="M84.81 40.66c2.58 0 5.59-.22 8.55.11 1.17.13 3.22.89 3.3 2.23.07 1.23-1.8 2.34-2.76 2.38-7.13.31-14.26.4-21.4.35-.8-.01-2.37-.94-2.39-2-.01-1.07 1.5-1.98 2.36-2.09 3.96-.5 7.94-.67 12.34-.98zM70.12 88.83c.22-2.4 4.54-1.69 6.88-2.2 1.9-.41 3.98-.64 5.86-.3 1.1.2 2.97 1.28 2.94 2.61-.03 1.21-1.73 1.97-2.78 2.26-1.71.47-13.14.27-12.9-2.37zm.01-9.94c.04-2.87 5.31-2.2 8.07-2.96 1.55-.43 3.39-.49 4.92-.08 1.34.37 3.62 1.02 3.64 2.5.02 1.37-2.07 2.06-3.3 2.4-1.71.48-13.36.86-13.33-1.86zm7.38-6.05c-2.73-1.47-7.65-1.33-7.4-3.97.24-2.55 4.84-1.94 7.33-2.21 2.93-.32 6.98-2.5 7.98 2.33.14.66-4.77 2.36-7.91 3.85zM5.02 69c-2.37.19-3.09-2.88-3.02-3.83.08-1.06 1.18-2.95 2.53-3.01 1.33-.06 2.55 1.67 2.78 2.73.2.92-.02 3.93-2.29 4.11zm10.26-.44c-2.2.22-3.36-2.83-3.18-3.53.32-1.25 1.41-3.27 2.9-3.26 1.32.01 2.4 1.85 2.54 2.91.12.99-.25 3.68-2.26 3.88zm9.93-8.14c2.24.09 2.62 3.02 2.5 3.99-.12 1.01-1.77 2.64-2.61 2.55-1.08-.11-2.7-1.57-2.82-2.59-.1-.95.56-4.05 2.93-3.95zm-10.67-8.91c1.94-.08 2.95 2.79 2.79 3.05-.75 1.21-1.89 2.34-3.15 2.98-.32.16-2.32-1.63-2.27-2.44.07-1.06.66-3.5 2.63-3.59zM3.57 49.3c-2.22-.17-2.31-3.05-2.34-4.21-.01-.67 1.95-2.04 2.79-1.89.93.18 2.15 1.71 2.21 2.71.06.86-.61 3.55-2.66 3.39z"/></g><defs><clipPath id="clip0"><path fill="#fff" d="M0 0H164.15V144.35H0z"/></clipPath></defs></svg>
